X:1
T:Title
%%score { ( 1 3 ) | ( 2 4 ) }
L:1/8
M:6/8
K:Bb
V:1 treble nm="Grand Piano"
V:3 treble 
V:2 bass 
V:4 bass 
V:1
 z3 z2[Q:1/4=100] [DF] | [DG]2 [DA] [DB]2 [Fd] | [Gc]3 [Ec]2 [Ge] | d2 c c2 F |[M:5/8] B-B- B3 | %5
[M:1/8] [DF] |[M:3/4] [DG]2 [DA] [DB]2 d | c3 [Af]2 [FA] | [=Ed]2 [Ec] [Ec]2 E |[M:5/8] F-F- F3 | %10
[M:1/8] F |[M:3/4] c2 c c2 d | B4 z2 | [Ge]2 [Ge] [GB]2 [Gc] |[M:5/8] [Fd]-[Fd]- [Fd]3 | %15
[M:1/8] [Fd] |[M:3/4] [Ac]2 [Gc] [Fc]2 [Af] | f3 d2 B | %18
 FG B c2 [EFA][Q:1/4=97][Q:1/4=94][Q:1/4=91][Q:1/4=88][Q:1/4=84][Q:1/4=81][Q:1/4=78] | %19
[M:5/8] [DFB]-[DFB]- [DFB]3 |] %20
V:2
 z3 z2 [B,,B,] | [B,,B,]2 [B,,F,] [B,,F,]2 [B,,B,] | [E,B,]3 [E,G,]2 [C,C] | %3
 [F,A,F]2 [F,A,E] [F,A,E]2 [F,A,E] |[M:5/8] z2 G, F,2 |[M:1/8] [B,,B,] | %6
[M:3/4] [B,,B,]2 [B,,F,] [B,,F,]2[K:treble] [B,F] | [A,CF]3[K:bass] [F,C]2 [F,C] | %8
 [C,B,]2 [C,G,] [C,G,]2 [C,B,C] |[M:5/8] [F,A,C]-[F,A,C]- [F,A,C]3 |[M:1/8] [F,A,] | %11
[M:3/4] [F,A,E]2[K:treble] [G,B,E] [A,CE]2 [F,A,F] | D2 E [B,DF]2[K:bass] [D,B,] | %13
 [E,B,]2 [E,B,] [E,E]2 [E,B,] |[M:5/8] [B,,B,]-[B,,B,]- [B,,B,]3 |[M:1/8] [B,,B,] | %16
[M:3/4] [F,E]2 [G,E] [A,E]2 [F,E] | [B,DB]3 [B,F]2[K:bass] B, | F,G, B, C2 F, | %19
[M:5/8] B,,-B,,- B,,3 |] %20
V:3
 x6 | x6 | x6 | x6 |[M:5/8] [B,D]2 E D2 |[M:1/8] x |[M:3/4] x6 | x6 | x6 |[M:5/8] x5 |[M:1/8] x | %11
[M:3/4] x6 | z2 G B2 [FB] | x6 |[M:5/8] x5 |[M:1/8] x |[M:3/4] x6 | x6 | x6 |[M:5/8] x5 |] %20
V:4
 x6 | x6 | x6 | x6 |[M:5/8] B,,-B,,- B,,3 |[M:1/8] x |[M:3/4] x5[K:treble] x | x3[K:bass] x3 | x6 | %9
[M:5/8] x5 |[M:1/8] x |[M:3/4] x2[K:treble] x4 | B,4 z2[K:bass] | x6 |[M:5/8] x5 |[M:1/8] x | %16
[M:3/4] x6 | x5[K:bass] x | x6 |[M:5/8] x5 |] %20

